svg/fluentui-system-icons/ic_fluent_mail_error_24_filled.svg

<svg width="24" height="24" viewBox="0 0 24 24" fill="none" xmlns="http://www.w3.org/2000/svg">
<path d="M23 6.5C23 9.53757 20.5376 12 17.5 12C14.4624 12 12 9.53757 12 6.5C12 3.46243 14.4624 1 17.5 1C20.5376 1 23 3.46243 23 6.5ZM17.5 3C17.2239 3 17 3.22386 17 3.5V7.5C17 7.77614 17.2239 8 17.5 8C17.7761 8 18 7.77614 18 7.5V3.5C18 3.22386 17.7761 3 17.5 3ZM17.5 10.125C17.8452 10.125 18.125 9.84518 18.125 9.5C18.125 9.15482 17.8452 8.875 17.5 8.875C17.1548 8.875 16.875 9.15482 16.875 9.5C16.875 9.84518 17.1548 10.125 17.5 10.125ZM17.5 13C19.2465 13 20.8321 12.3112 22 11.1904V16.75C22 18.483 20.6435 19.8992 18.9344 19.9949L18.75 20H5.25C3.51697 20 2.10075 18.6435 2.00514 16.9344L2 16.75V8.608L11.652 13.6644C11.87 13.7785 12.13 13.7785 12.348 13.6644L14.7649 12.3983C15.5963 12.7844 16.523 13 17.5 13ZM5.25 4H11.4982C11.1772 4.76959 11 5.6141 11 6.5C11 8.49254 11.8966 10.2757 13.3083 11.468L12 12.1533L2.01619 6.92355C2.17386 5.34271 3.46432 4.09545 5.06409 4.00523L5.25 4Z" fill="#212121"/>
</svg>

<svg xmlns="http://www.w3.org/2000/svg" width="24" height="24"><path d="M23 6.5a5.5 5.5 0 1 1-11 0 5.5 5.5 0 0 1 11 0ZM17.5 3a.5.5 0 0 0-.5.5v4a.5.5 0 0 0 1 0v-4a.5.5 0 0 0-.5-.5Zm0 7.125a.625.625 0 1 0 0-1.25.625.625 0 0 0 0 1.25Zm0 2.875a6.478 6.478 0 0 0 4.5-1.81v5.56a3.25 3.25 0 0 1-3.066 3.245L18.75 20H5.25a3.25 3.25 0 0 1-3.245-3.066L2 16.75V8.608l9.652 5.056a.75.75 0 0 0 .696 0l2.417-1.266A6.477 6.477 0 0 0 17.5 13ZM5.25 4h6.248A6.479 6.479 0 0 0 11 6.5c0 1.993.897 3.776 2.308 4.968L12 12.153l-9.984-5.23a3.25 3.25 0 0 1 3.048-2.918L5.25 4Z"/></svg>
